X: 30595
T: LOVE IN A BIRD CAGE
C:
%R: march, reel
B: Elias Howe "The Musician's Companion" Part 3 1844 p.59 #5
S: http://imslp.org/wiki/The_Musician's_Companion_(Howe,_Elias)
S: https://archive.org/stream/firstthirdpartof03howe/#page/66/mode/1up
Z: 2015 John Chambers <jc:trillian.mit.edu>
M: 2/4
L: 1/8
K: C
% - - - - - - - - - - - - - - - - - - - - - - - - -
g |\
ecGE | G>AGc | Bdce | eddg |\
ecGe | G>AGc | BdGB | ccc :|\
|: g |\
gefa | gece  | fdec | fBGg |\
gefa | gece  | fdcB | c2c :|
% - - - - - - - - - - - - - - - - - - - - - - - - -
